svg/business/currency_rupee_fill.svg

<?xml version="1.0" encoding="UTF-8"?>
<svg width="24px" height="24px" viewBox="0 0 24 24" version="1.1" xmlns="http://www.w3.org/2000/svg" xmlns:xlink="http://www.w3.org/1999/xlink">
    <title>currency_rupee_fill</title>
    <g id="页面-1" stroke="none" stroke-width="1" fill="none" fill-rule="evenodd">
        <g id="Business" transform="translate(-528.000000, -336.000000)">
            <g id="currency_rupee_fill" transform="translate(528.000000, 336.000000)">
                <path d="M24,0 L24,24 L0,24 L0,0 L24,0 Z M12.5934901,23.257841 L12.5819402,23.2595131 L12.5108777,23.2950439 L12.4918791,23.2987469 L12.4918791,23.2987469 L12.4767152,23.2950439 L12.4056548,23.2595131 C12.3958229,23.2563662 12.3870493,23.2590235 12.3821421,23.2649074 L12.3780323,23.275831 L12.360941,23.7031097 L12.3658947,23.7234994 L12.3769048,23.7357139 L12.4804777,23.8096931 L12.4953491,23.8136134 L12.4953491,23.8136134 L12.5071152,23.8096931 L12.6106902,23.7357139 L12.6232938,23.7196733 L12.6232938,23.7196733 L12.6266527,23.7031097 L12.609561,23.275831 C12.6075724,23.2657013 12.6010112,23.2592993 12.5934901,23.257841 L12.5934901,23.257841 Z M12.8583906,23.1452862 L12.8445485,23.1473072 L12.6598443,23.2396597 L12.6498822,23.2499052 L12.6498822,23.2499052 L12.6471943,23.2611114 L12.6650943,23.6906389 L12.6699349,23.7034178 L12.6699349,23.7034178 L12.678386,23.7104931 L12.8793402,23.8032389 C12.8914285,23.8068999 12.9022333,23.8029875 12.9078286,23.7952264 L12.9118235,23.7811639 L12.8776777,23.1665331 C12.8752882,23.1545897 12.8674102,23.1470016 12.8583906,23.1452862 L12.8583906,23.1452862 Z M12.1430473,23.1473072 C12.1332178,23.1423925 12.1221763,23.1452606 12.1156365,23.1525954 L12.1099173,23.1665331 L12.0757714,23.7811639 C12.0751323,23.7926639 12.0828099,23.8018602 12.0926481,23.8045676 L12.108256,23.8032389 L12.3092106,23.7104931 L12.3186497,23.7024347 L12.3186497,23.7024347 L12.3225043,23.6906389 L12.340401,23.2611114 L12.337245,23.2485176 L12.337245,23.2485176 L12.3277531,23.2396597 L12.1430473,23.1473072 Z" id="MingCute" fill-rule="nonzero"></path>
                <path d="M12,2 C6.47715,2 2,6.47715 2,12 C2,17.5228 6.47715,22 12,22 C17.5228,22 22,17.5228 22,12 C22,6.47715 17.5228,2 12,2 Z M7.99999945,8 C7.99999945,7.44772 8.44772,7 8.99999945,7 L14.9999995,7 C15.5523,7 15.9999995,7.44772 15.9999995,8 C15.9999995,8.55228 15.5523,9 14.9999995,9 L13.4649,9 C13.6439,9.30951 13.7827,9.64523 13.874,10 L14.9999995,10 C15.5523,10 15.9999995,10.4477 15.9999995,11 C15.9999995,11.5523 15.5523,12 14.9999995,12 L13.874,12 C13.5629,13.2086 12.7012,14.1961 11.5722,14.6792 L13.6001,16.2001 C14.0419,16.5314 14.1314,17.1582 13.8001,17.6001 C13.4687,18.0419 12.8419,18.1314 12.4001,17.8001 L8.40839,14.8063 C8.1488,14.6155 7.99967,14.3249 7.99999945,13.999 C8.00009,13.7419 8.10273,13.4947 8.27092,13.3156 C8.46007,13.1136 8.71563,13 9.00083,13 L9.99999945,13 C10.7403,13 11.3866,12.5978 11.7324,12 L8.99999945,12 C8.44772,12 7.99999945,11.5523 7.99999945,11 C7.99999945,10.4477 8.44772,10 8.99999945,10 L11.7324,10 C11.3866,9.4022 10.7403,9 9.99999945,9 L8.99999945,9 C8.44772,9 7.99999945,8.55228 7.99999945,8 Z" id="形状" fill="#09244B"></path>
            </g>
        </g>
    </g>
</svg>

<svg xmlns="http://www.w3.org/2000/svg" width="24" height="24"><g fill="none" fill-rule="evenodd"><path d="M24 0v24H0V0zM12.593 23.258l-.011.002-.071.035-.02.004-.014-.004-.071-.035c-.01-.004-.019-.001-.024.005l-.004.01-.017.428.005.02.01.013.104.074.015.004.012-.004.104-.074.012-.016.004-.017-.017-.427c-.002-.01-.009-.017-.017-.018m.265-.113-.013.002-.185.093-.01.01-.003.011.018.43.005.012.008.007.201.093c.012.004.023 0 .029-.008l.004-.014-.034-.614c-.003-.012-.01-.02-.02-.022m-.715.002a.023.023 0 0 0-.027.006l-.006.014-.034.614c0 .012.007.02.017.024l.015-.002.201-.093.01-.008.004-.011.017-.43-.003-.012-.01-.01z"/><path fill="#09244B" d="M12 2C6.477 2 2 6.477 2 12s4.477 10 10 10 10-4.477 10-10S17.523 2 12 2M8 8a1 1 0 0 1 1-1h6a1 1 0 1 1 0 2h-1.535c.179.31.318.645.409 1H15a1 1 0 1 1 0 2h-1.126a4.01 4.01 0 0 1-2.302 2.68L13.6 16.2a1 1 0 0 1-1.2 1.6l-3.992-2.994A.986.986 0 0 1 8 14c0-.257.103-.504.27-.683A.985.985 0 0 1 9 13h1a2 2 0 0 0 1.732-1H9a1 1 0 1 1 0-2h2.732A2 2 0 0 0 10 9H9a1 1 0 0 1-1-1"/></g></svg>
